svg/skate.svg

<svg xmlns="http://www.w3.org/2000/svg" viewBox="0 0 24 24"><path d="M21.1 16.5c-.74-.33-1.6 0-1.91.76-.13.32-.39.61-.69.74H3v3h14.97c1.71 0 3.25-1 3.91-2.59.32-.74-.02-1.6-.78-1.91M19 15s0 1-2 1H4V3h7l.21 1.5H9.24V6h2.19l.21 1.5h-2.4V9h2.62l.14 1h2s5 0 5 5"/></svg>

<?xml version="1.0" encoding="UTF-8"?><!DOCTYPE svg PUBLIC "-//W3C//DTD SVG 1.1//EN" "http://www.w3.org/Graphics/SVG/1.1/DTD/svg11.dtd"><svg xmlns="http://www.w3.org/2000/svg" xmlns:xlink="http://www.w3.org/1999/xlink" version="1.1" id="mdi-skate" width="24" height="24" viewBox="0 0 24 24"><path d="M21.1,16.5C20.36,16.17 19.5,16.5 19.19,17.26C19.06,17.58 18.8,17.87 18.5,18H3V21H17.97C19.68,21 21.22,20 21.88,18.41C22.2,17.67 21.86,16.81 21.1,16.5M19,15C19,15 19,16 17,16C15,16 4,16 4,16V3H11L11.21,4.5H9.24V6H11.43L11.64,7.5H9.24V9H11.86L12,10H14C14,10 19,10 19,15Z" /></svg>
